X:1
T:THE MINSTREL BOY
M:C
L:1/8
Q:80
C:
S:MARCH
K:HP
e | \
{g}A3B{g}dc{g}B{G}A | \
{g}c2{g}e2{ag}a2ga | \
{fg}f2e2{g}c3/2d/2{g}ec |
{g}B4{G}A4 :| \
{g}ce | \
{ag}a2g2{fg}f2ga |
{f}g2f2{gef}e3{A}e | \
{g}f3c{GdG}c2e2 | \
{g}f3/2e/2{g}fga2{g}a2 |
{AGAG}A3B{g}dc{g}B{G}A | \
{g}c2{g}e2{ag}a2ga | \
{fg}f2e2{g}c3/2d/2{g}ec |
{g}B4{G}A4 |
